X:288
T:Pretty Peg
Z: id:dc-reel-275
M:C
L:1/8
K:D Major
A|d2fd AFDF|d2fd egfe|d2fd AFDF|GEFD CEEA|!
d2fd AFDF|d2fd egfe|fage dBAF|GEFD CDD|]!
A|FDAD BDAD|FDAD CEEA|FDAD BDAD|GEFD CDDA|!
FDdD cDBD|ADFD CEEA|FAdf ecdB|AFGE FDD|]!
